img/vlag.svg

<svg width="38" height="38" viewBox="0 0 38 38" fill="none" xmlns="http://www.w3.org/2000/svg">
<g clip-path="url(#clip0)">
<path d="M22.3033 3.60026C21.2094 2.35577 20.2146 1.16677 19.4417 0.219537C19.4139 0.184164 19.382 0.152259 19.3466 0.124417C19.1044 -0.0704802 18.7502 -0.0322341 18.5553 0.209925C18.5548 0.21052 18.5544 0.211015 18.5539 0.21161C17.7613 1.17866 16.7823 2.33199 15.6885 3.60026C10.8809 9.17666 4.23047 16.8774 4.23047 23.2306C4.23047 31.3876 10.8429 38 18.9998 38C27.1567 38 33.7692 31.3876 33.7692 23.2306C33.7692 16.8893 27.1187 9.17666 22.3033 3.60026ZM28.6446 32.8734C23.3175 38.2011 14.68 38.2016 9.35218 32.8745C6.79425 30.3169 5.35685 26.848 5.35605 23.2306C5.35605 17.2856 11.844 9.77513 16.5445 4.33744C17.4402 3.29904 18.2725 2.35577 18.9978 1.45213C19.7231 2.35577 20.5554 3.29904 21.4511 4.33744C26.1318 9.77513 32.6396 17.2896 32.6396 23.2306C32.6437 26.8484 31.2059 30.3186 28.6446 32.8734Z" fill="white" stroke="white" stroke-width="0.6"/>
<path d="M19.0614 32.0293V32.0333C14.3357 32.0355 10.5028 28.2062 10.5006 23.4804C10.5006 23.4777 10.5006 23.4752 10.5006 23.4725C10.5006 23.1606 10.2478 22.9077 9.93587 22.9077C9.62396 22.9077 9.3711 23.1606 9.3711 23.4725C9.36674 28.8177 13.6964 33.1545 19.0416 33.1589C19.0483 33.1589 19.0548 33.1589 19.0614 33.1589C19.3734 33.1589 19.6262 32.906 19.6262 32.5941C19.6262 32.2822 19.3734 32.0293 19.0614 32.0293Z" fill="white" stroke="white" stroke-width="0.6"/>
</g>
<defs>
<clipPath id="clip0">
<rect width="38" height="38" fill="white"/>
</clipPath>
</defs>
</svg>

<svg width="38" height="38" fill="none" xmlns="http://www.w3.org/2000/svg"><g clip-path="url(#clip0)" fill="#fff" stroke="#fff" stroke-width=".6"><path d="M22.303 3.6A122.814 122.814 0 0119.442.22a.563.563 0 00-.886-.01l-.002.002c-.793.967-1.772 2.12-2.865 3.388C10.88 9.177 4.23 16.877 4.23 23.23 4.23 31.389 10.843 38 19 38s14.77-6.612 14.77-14.77c0-6.34-6.651-14.053-11.467-19.63zm6.342 29.273c-5.328 5.328-13.965 5.329-19.293.002a13.642 13.642 0 01-3.996-9.644c0-5.945 6.488-13.456 11.188-18.894.896-1.038 1.729-1.981 2.454-2.885.725.904 1.557 1.847 2.453 2.885C26.131 9.775 32.64 17.29 32.64 23.231a13.598 13.598 0 01-3.995 9.642z"/><path d="M19.061 32.03v.003a8.557 8.557 0 01-8.56-8.553v-.008a.565.565 0 10-1.13 0c-.004 5.346 4.325 9.682 9.67 9.687h.02a.565.565 0 100-1.13z"/></g><defs><clipPath id="clip0"><path fill="#fff" d="M0 0h38v38H0z"/></clipPath></defs></svg>
